X:1
T:Am Grabe
T:Anton Bruckner (1824-1896)
T:Ernst von Marinelli
T:Am Grabe
T:Copyright © 2016 by CPDL This edition can be fully distributed, duplicated, performed, and recorded 
T:WAB 2
T:Copyright © 2016 by CPDL This edition can be fully distributed, duplicated, performed, and recorded 
T:Copyright © 2016 by CPDL This edition can be fully distributed, duplicated, performed, and recorded 
T:Copyright © 2016 by CPDL This edition can be fully distributed, duplicated, performed, and recorded 
C:Anton Bruckner
C:(1824-1896)
Z:Ernst von Marinelli
Z:Copyright © 2016 by CPDL
Z:This edition can be fully distributed, duplicated, performed, and recorded
%%score [ 1 2 3 4 ]
L:1/8
Q:1/4=60
M:4/4
K:Ab
V:1 treble-8 transpose=-12 nm="Tenor I" snm="T."
V:2 treble-8 transpose=-12 nm="Tenor II" snm="T."
V:3 bass nm="Bass I" snm="B."
V:4 bass nm="Bass II" snm="B."
V:1
!pp!"^Langsam" c3 c c2 c2 |"^cresc." c2 e2 !>!d4 | c2 z2!f! g3 c | a2 g2"^dim." f3 f | %4
w: Brü- der, trock- net|eu- re Zäh-|ren, stillt der|Schmer- zen her- bes|
w: Wohl ist dies das|letz- te Schau-|en auf die|Lei- che und den|
!p! =e2 z2 f3 _e |!<(! dddc (B2!<)! B2) | B2 (fe) (ed)!>(! (Ad) | c2 B2 A2!>)! z2 :| %8
w: Leid, Lie- be|kann sich auch be- wäh- ren|durch Er- * ge- * bungs- *|in- nig- keit.|
w: Sarg, Doch die|See- le die sie barg, _|tri- um- * phiert _ durch _|Gott- ver- trau'n.|
!ff! G3 c c3 =e | !>!=e2 !>!f2 !>!f2 !>!e2 |!p! f2 _e2 d2 (ef/e/) | d2 c2 d2 z2 |!ff! f3 b b_ged | %13
w: Drum lasst uns den|Her- ren prei- sen,|der die E- del- * *|ste er- wählt.|Und für uns, die ar- men|
w: |||||
"^dim." c4 d2 z2 |!p!"^Largo"[Q:1/4=50] d3 d"^cresc." d3 =d | e3 e e2 (e=e) | f3 _g (g2 f2) | %17
w: Wai- sen,|und für uns, die|ar- men Wai- sen, _|und für uns, _|
w: ||||
 z ef_g g2 f2 |!pp! (d2 c2 =B2) f2 | f2 (=e=d) e3 e | !fermata!f8 |] %21
w: den ar- men Wai- sen,|auch _ _ den|Him- mel _ of- fen-|hält.|
w: ||||
V:2
!pp! c3 c c2 c2 |"^cresc." c2 c2 (!>!c2 B2) | =A2 z2!f! G3 B | (_Af) (fe)"^dim." (ed/c/ B)B | %4
w: Brü- der, trock- net|eu- re Zäh- *|ren, stillt der|Schmer- * zen * her- * * * bes|
w: Wohl ist dies das|letz- te Schau- *|en auf die|Lei- * che * und _ _ _ den|
!p! c2 z2 c3 c |!<(! cBAA (A2!<)! A2) | G2 B2 c2!>(! (AB) | A2 G2 E2!>)! z2 :|!ff! =E3 G G3 c | %9
w: Leid, Lie- be|kann sich auch be- wäh- ren|durch Er- ge- bungs- *|in- nig- keit.|Drum lasst uns den|
w: Sarg, Doch die|See- le die sie barg, _|tri- um- phiert durch _|Gott- ver- trau'n.||
 !>!c2 !>!c2 !>!c2 !>!c2 |!p! c2 c2 B2 B2 | A2 A2 A2 z2 |!ff! =d3 d eBBB |"^dim." (A2 _G2) F2 z2 | %14
w: Her- ren prei- sen,|der die E- del-|ste er- wählt.|Und für uns, die ar- men|Wai- * sen,|
w: |||||
 z2!p! A_c"^cresc." B3 A | (GB) (Bd) d=c z2 | c2 c2 c2 c2 | c2 c2 c2 c2 |!pp! (B2 A4) =B2 | %19
w: und für uns, die|ar- * men _ Wai- sen,|und für uns, die|ar- men Wai- sen,|auch _ den|
w: |||||
 c2 c2 c3 c | !fermata!c8 |] %21
w: Him- mel of- fen-|hält.|
w: ||
V:3
!pp! C3 C C2 B,2 |"^cresc." A,2 _G,2 !>!F,4 | F,2 z2!f! =E,3 C | C2 C2"^dim." (A,2 F,)F, | %4
w: Brü- der, trock- net|eu- re Zäh-|ren, stillt der|Schmer- zen her- * bes|
w: Wohl ist dies das|letz- te Schau-|en auf die|Lei- che und _ den|
!p! G,2 z2 F,3 F, |!<(! F,F,F,F, (F,2!<)! F,2) | E,2 G,2 A,2!>(! F,2 | E,2 D,2 C,2!>)! z2 :| %8
w: Leid, Lie- be|kann sich auch be- wäh- ren|durch Er- ge- bungs-|in- nig- keit.|
w: Sarg, Doch die|See- le die sie barg, _|tri- um- phiert durch|Gott- ver- trau'n.|
!ff! C,3 =E, E,3 G, | !>!G,2 !>!A,2 !>!A,2 !>!G,2 |!p! A,2 _G,2 F,2 G,2 | E,2 F,_G, F,2 z2 | %12
w: Drum lasst uns den|Her- ren prei- sen,|der die E- del-|ste er- * wählt.|
w: ||||
!ff! B,3 F, B,B,_G,F, |"^dim." E,4 D,2 z2 | z2!p! F,A,"^cresc." (A,D,) (_G,_F,) | %15
w: Und für uns, die ar- men|Wai- sen,|und für uns, _ die _|
w: |||
 (E,=G,) (G,B,) B,A, z2 | F,3 _E, (E,2 F,2) | z _G,F,E, E,2 F,2 |!pp! F,6 A,2 | %19
w: ar- * men _ Wai- sen,|und für uns, _|den ar- men Wai- sen,|auch den|
w: ||||
 =A,2 (=G,F,) G,2 B,2 | !fermata!=A,8 |] %21
w: Him- mel _ of- fen-|hält.|
w: ||
V:4
!pp! C,3 B,, A,,2 G,,2 |"^cresc." F,,2 A,,2 !>!B,,4 | F,,2 z2!f! C,3 =E, | F,2 C,2"^dim." D,3 D, | %4
w: Brü- der, trock- net|eu- re Zäh-|ren, stillt der|Schmer- zen her- bes|
w: Wohl ist dies das|letz- te Schau-|en auf die|Lei- che und den|
!p! C,2 z2 =A,,3 A,, |!<(! B,,B,,C,C, (D,2!<)! =D,2) | E,2 _D,2 C,2!>(! (F,B,,) | %7
w: Leid, Lie- be|kann sich auch be- wäh- ren|durch Er- ge- bungs- *|
w: Sarg, Doch die|See- le die sie barg, _|tri- um- phiert durch _|
 E,2 E,,2 A,,2!>)! z2 :|!ff! C,3 C, C,3 C, | !>!C,2 !>!F,,2 !>!C,2 !>!C,2 | %10
w: in- nig- keit.|Drum lasst uns den|Her- ren prei- sen,|
w: Gott- ver- trau'n.|||
!p! F,,2 A,,2 B,,2 _G,,2 | A,,2 A,,2 D,2 z2 |!ff! B,,2 A,,2 _G,,G,,G,,G,, | %13
w: der die E- del-|ste er- wählt.|Und für uns, die ar- men|
w: |||
"^dim." (A,,2 =A,,2) B,,2 z2 | z2!p! D,F,, _G,,2 z2 | z"^cresc." E,E,=G,, A,,A,, z2 | %16
w: Wai- * sen,|und für uns,|die ar- men Wai- sen,|
w: |||
 =A,,2 A,,2 A,,2 A,,2 | =A,,2 A,,2 A,,2 A,,2 |!pp! (B,,2 C,2 D,2) D,2 | C,2 C,2 C,3 C, | %20
w: und für uns, die|ar- men Wai- sen,|auch _ _ den|Him- mel of- fen-|
w: ||||
 !fermata!F,,8 |] %21
w: hält.|
w: |

